X:0791
T:Dalnaglare's Rant.
M:C|
L:1/8
Q:1/2=104
I: (1) :| (2) || ||
Z:Jack Campin * www.campin.me.uk * 2009
K:G
G>ABc dBBe|dB`cA  B2B2|G>ABc dB`Be|[1 dB`BG  A2A2:|\
                                   [2 d<Bg>B A2A2||
g>age dBBe|d<Bc<A B2B2|g>age dB`Be|   dB`BG  A2A2 |
g>age dBBe|d<Bc>A B2B2|g>age d>ega|   ge`dc  A2A2|]
<end>
<start>
